img/whatsapp_logo.svg

<svg width="24" height="24" viewBox="0 0 24 24" fill="none" xmlns="http://www.w3.org/2000/svg">
<path d="M4.25889 16.5936C3.1407 14.7086 2.7491 12.4802 3.15762 10.327C3.56615 8.17366 4.74669 6.24356 6.47758 4.89909C8.20846 3.55462 10.3706 2.88826 12.558 3.02514C14.7455 3.16202 16.8077 4.09273 18.3575 5.6425C19.9072 7.19226 20.838 9.25448 20.9749 11.4419C21.1117 13.6293 20.4454 15.7915 19.1009 17.5224C17.7565 19.2533 15.8264 20.4338 13.6731 20.8424C11.5198 21.2509 9.29143 20.8593 7.40643 19.7411L7.40645 19.741L4.29802 20.6292C4.16942 20.6659 4.03332 20.6676 3.90385 20.634C3.77437 20.6005 3.65622 20.5329 3.56165 20.4384C3.46707 20.3438 3.3995 20.2256 3.36595 20.0961C3.3324 19.9667 3.33409 19.8306 3.37083 19.702L4.25896 16.5935L4.25889 16.5936Z" stroke="white" stroke-linecap="round" stroke-linejoin="round"/>
<path d="M13.9378 16.5L13.935 16.5C13.0896 16.5012 12.2523 16.3356 11.471 16.0126C10.6897 15.6896 9.97984 15.2157 9.38205 14.6179C8.78426 14.0201 8.3103 13.3102 7.98734 12.529C7.66437 11.7477 7.49874 10.9103 7.49995 10.0649L7.49995 10.064C7.50214 9.38288 7.77441 8.7304 8.25705 8.24972C8.73964 7.76908 9.39315 7.49947 10.0743 7.5M13.9378 16.5L10.9514 8.00919C10.863 7.85451 10.7353 7.72594 10.5812 7.63652C10.4273 7.54717 10.2524 7.50008 10.0744 7.5C10.0744 7.5 10.0743 7.5 10.0743 7.5M13.9378 16.5C14.6176 16.4953 15.2682 16.2224 15.748 15.7406C16.2278 15.2589 16.498 14.6073 16.4999 13.9274V13.9259M13.9378 16.5L16.4999 13.9259M10.0743 7.5C10.0742 7.5 10.0741 7.5 10.074 7.5L10.074 8L10.0743 7.5ZM16.4999 13.9259C16.4999 13.7478 16.4528 13.5728 16.3634 13.4187C16.274 13.2646 16.1454 13.1369 15.9908 13.0485L14.4752 12.1825C14.3067 12.0862 14.1156 12.0366 13.9215 12.0386C13.7275 12.0407 13.5375 12.0944 13.371 12.1943L12.4471 12.7486C11.9445 12.4699 11.5301 12.0555 11.2514 11.5528L11.8057 10.6289C11.9055 10.4625 11.9593 10.2725 11.9613 10.0784C11.9634 9.88432 11.9137 9.6932 11.8174 9.52469L10.9514 8.00919L16.4999 13.9259ZM15.931 13.6697C15.9761 13.7475 15.9999 13.8359 15.9999 13.9259L15.7427 13.4826C15.8208 13.5273 15.8858 13.5918 15.931 13.6697Z" stroke="white" stroke-linecap="round" stroke-linejoin="round"/>
</svg>

<svg width="24" height="24" fill="none" xmlns="http://www.w3.org/2000/svg"><path d="M4.259 16.594a8.996 8.996 0 113.147 3.147h0l-3.108.888a.75.75 0 01-.927-.927l.888-3.109h0z" stroke="#fff" stroke-linecap="round" stroke-linejoin="round"/><path d="M13.938 16.5h-.003A6.425 6.425 0 017.5 10.065v-.001A2.572 2.572 0 0110.074 7.5m3.864 9L10.95 8.01a1.01 1.01 0 00-.877-.51s0 0 0 0m3.864 9a2.58 2.58 0 002.562-2.573v-.001M13.938 16.5l2.562-2.574M10.074 7.5s0 0 0 0V8v-.5zm6.426 6.426a1.01 1.01 0 00-.51-.877l-1.515-.867a1.093 1.093 0 00-1.104.012l-.924.555a3.07 3.07 0 01-1.196-1.196l.555-.924a1.092 1.092 0 00.011-1.104l-.866-1.516 5.549 5.917zm-.569-.256a.51.51 0 01.069.256l-.257-.443a.504.504 0 01.188.187z" stroke="#fff" stroke-linecap="round" stroke-linejoin="round"/></svg>
